X:282
T:Tom Billy's
M:6/8
L:1/8
R:jig
Z:Michael Abraham Shulman
N:Learned from Kira Ott
K:D
a3 Aca|edB BAA|eaa Aca|edB Ace|
a3 Aca|edB BAB|GBd g2e|fdB Ace:|
gfg aga|bag fed|faf gdB|BAB def|
gfg aga|bge gab|age dBe|1 ABA Ace:|2 ~A3 fed|
~c3 ~d3|~e3 dBe|~A3 edB|~A3 fed|
~c3 ~d3|~e3 gab|age dBe|1 ~A3 fed:|2 ABA A3||
